exports/population-growth-rates_v2_850x600.svg

<svg xmlns="http://www.w3.org/2000/svg" version="1.1" style="background-color:#fff;-webkit-font-smoothing:antialiased" width="850" height="600" font-family="'Helvetica Neue',Helvetica,Arial,sans-serif" font-size="18" text-rendering="optimizeLegibility"><g class="ChartTab"><g class="HeaderView"><g opacity=".8" transform="matrix(.27 0 0 .27 778 15)"><a xmlns:xlink="http://www.w3.org/1999/xlink" xlink:href="https://ourworldindata.org" target="_blank"><g><path fill="#1B2543" d="M0 0h211.2v130.1H0z"/><path fill="#E63912" d="M0 112.2h211.2v17.9H0z"/><g><path fill="none" d="M1.2 12.3h210.2v99.2H1.2z"/><path fill="#FFF" d="M37.8 32.2c0 12.7-7.7 19.4-17.1 19.4-9.7 0-16.6-7.5-16.6-18.7 0-11.7 7.3-19.3 17.1-19.3 10.1.1 16.6 7.7 16.6 18.6zm-28.6.6c0 7.9 4.3 14.9 11.8 14.9 7.5 0 11.8-6.9 11.8-15.3 0-7.3-3.8-14.9-11.8-14.9-7.9 0-11.8 7.3-11.8 15.3zM62.7 43.8c0 2.7.1 5.1.2 7.2h-4.3l-.3-4.3h-.1c-1.3 2.1-4 4.9-8.8 4.9-4.2 0-9.1-2.3-9.1-11.6V24.6h4.8v14.6c0 5 1.5 8.4 5.9 8.4 3.2 0 5.5-2.2 6.3-4.4.3-.7.4-1.6.4-2.5V24.6h4.8v19.2zM67.3 32.8c0-3.1-.1-5.8-.2-8.2h4.2l.2 5.2h.2c1.2-3.5 4.1-5.8 7.3-5.8.5 0 .9.1 1.4.2v4.5c-.5-.1-1-.2-1.6-.2-3.4 0-5.8 2.6-6.5 6.2-.1.7-.2 1.4-.2 2.2V51h-4.8V32.8zM95.4 51L86 14.2h5l4.4 18.6c1.1 4.6 2.1 9.2 2.7 12.7h.1c.6-3.7 1.8-8 3-12.8l4.9-18.5h5l4.5 18.7c1 4.4 2 8.7 2.6 12.6h.1c.8-4 1.8-8.1 3-12.7l4.9-18.5h4.9L120.6 51h-5L111 31.9c-1.1-4.7-1.9-8.3-2.4-12h-.1c-.7 3.7-1.5 7.3-2.8 12L100.4 51h-5zM154.9 37.6c0 9.8-6.8 14-13.2 14-7.2 0-12.7-5.2-12.7-13.6 0-8.8 5.8-14 13.1-14 7.7 0 12.8 5.5 12.8 13.6zm-21 .3c0 5.8 3.3 10.1 8 10.1 4.6 0 8-4.3 8-10.3 0-4.5-2.2-10.1-7.9-10.1s-8.1 5.2-8.1 10.3zM158.2 32.8c0-3.1-.1-5.8-.2-8.2h4.2l.2 5.2h.2c1.2-3.5 4.1-5.8 7.3-5.8.5 0 .9.1 1.4.2v4.5c-.5-.1-1-.2-1.6-.2-3.4 0-5.8 2.6-6.5 6.2-.1.7-.2 1.4-.2 2.2V51h-4.8V32.8zM173.5 12.3h4.8V51h-4.8V12.3zM206.5 12.3v31.9c0 2.3.1 5 .2 6.8h-4.3l-.2-4.6h-.2c-1.5 2.9-4.7 5.2-9 5.2-6.4 0-11.3-5.4-11.3-13.4-.1-8.8 5.4-14.2 11.9-14.2 4 0 6.8 1.9 8 4h.1V12.3h4.8zm-4.8 23.1c0-.6-.1-1.4-.2-2a7 7 0 00-6.9-5.6c-5 0-7.9 4.4-7.9 10.2 0 5.3 2.6 9.8 7.8 9.8 3.2 0 6.2-2.1 7.1-5.7.2-.7.2-1.3.2-2.1v-4.6zM42.8 64c.1 1.6-1.1 2.9-3.1 2.9-1.7 0-2.9-1.3-2.9-2.9 0-1.7 1.3-3 3-3 1.9 0 3 1.3 3 3zm-5.4 33.8V71.4h4.8v26.4h-4.8zM47.5 78.6c0-2.7-.1-5-.2-7.1h4.3l.3 4.4h.1c1.3-2.5 4.4-5 8.8-5 3.7 0 9.4 2.2 9.4 11.2v15.8h-4.8V82.6c0-4.3-1.6-7.8-6.1-7.8-3.2 0-5.6 2.2-6.5 4.9-.2.6-.3 1.4-.3 2.2v15.9h-4.8V78.6zM84 61.6c2.9-.4 6.3-.8 10.1-.8 6.8 0 11.7 1.6 14.9 4.6 3.3 3 5.2 7.3 5.2 13.2 0 6-1.9 10.9-5.3 14.3-3.4 3.4-9.1 5.3-16.3 5.3-3.4 0-6.2-.2-8.6-.4V61.6zm4.8 32.5c1.2.2 3 .3 4.8.3 10.2 0 15.7-5.7 15.7-15.6.1-8.7-4.9-14.2-14.9-14.2-2.5 0-4.3.2-5.6.5v29zM132.1 97.8l-.4-3.3h-.2a9.79 9.79 0 01-8.1 3.9c-5.4 0-8.1-3.8-8.1-7.6 0-6.4 5.7-9.9 15.9-9.8v-.5c0-2.2-.6-6.1-6-6.1-2.5 0-5 .8-6.9 2l-1.1-3.2c2.2-1.4 5.4-2.3 8.7-2.3 8.1 0 10.1 5.5 10.1 10.8v9.9c0 2.3.1 4.5.4 6.3h-4.3zm-.7-13.4c-5.3-.1-11.2.8-11.2 5.9 0 3.1 2.1 4.6 4.5 4.6 3.4 0 5.6-2.2 6.4-4.4.2-.5.3-1 .3-1.5v-4.6zM146.6 63.9v7.6h6.9v3.7h-6.9v14.2c0 3.3.9 5.1 3.6 5.1 1.3 0 2.2-.2 2.8-.3l.2 3.6c-.9.4-2.4.7-4.3.7-2.2 0-4-.7-5.2-2-1.4-1.4-1.9-3.8-1.9-6.9V75.1h-4.1v-3.7h4.1v-6.3l4.8-1.2zM171.4 97.8l-.4-3.3h-.2a9.79 9.79 0 01-8.1 3.9c-5.4 0-8.1-3.8-8.1-7.6 0-6.4 5.7-9.9 15.9-9.8v-.5c0-2.2-.6-6.1-6-6.1-2.5 0-5 .8-6.9 2l-1.1-3.2c2.2-1.4 5.4-2.3 8.7-2.3 8.1 0 10.1 5.5 10.1 10.8v9.9c0 2.3.1 4.5.4 6.3h-4.3zm-.7-13.4c-5.3-.1-11.2.8-11.2 5.9 0 3.1 2.1 4.6 4.5 4.6 3.4 0 5.6-2.2 6.4-4.4.2-.5.3-1 .3-1.5v-4.6z"/></g></g></a></g><a href="https://ourworldindata.org/grapher/population-growth-rates" target="_blank"><text font-size="25.2" x="15" y="35.2" fill="#555"><tspan x="15" y="35.16">Population growth rate</tspan></text></a><text font-size="14.4" x="15" y="53.7" fill="#666"><tspan x="15" y="53.72">Average annual rate of population change (including the UN&apos;s &apos;Medium variant&apos; projections until 2100)</tspan></text></g><g class="LineChart"><defs><clipPath id="a"><path d="M47.1 0h830v959.8h-830z"/></clipPath></defs><g class="AxisBoxView"><g class="HorizontalAxis" fill="#666" text-anchor="middle" font-size="16.2"><text x="57.1" y="556.5">1950</text><text x="160.7" y="556.5">1980</text><text x="229.7" y="556.5">2000</text><text x="298.7" y="556.5">2020</text><text x="367.8" y="556.5">2040</text><text x="436.8" y="556.5">2060</text><text x="505.9" y="556.5">2080</text><text x="571.4" y="556.5">2099</text></g><g class="VerticalAxis" fill="#666" dominant-baseline="middle" text-anchor="end" font-size="16.2"><text x="52.1" y="535.3">0%</text><text x="52.1" y="424.3">0.5%</text><text x="52.1" y="313.4">1%</text><text x="52.1" y="202.4">1.5%</text><text x="52.1" y="91.5">2%</text></g><g class="AxisGridLines"><path stroke="#ccc" d="M57.1 535.3h514.34"/><path stroke="#ddd" stroke-dasharray="3,2" d="M57.1 424.3h514.34M57.1 313.4h514.34M57.1 202.4h514.34M57.1 91.5h514.34"/></g></g><g clip-path="url(#a)"><g class="HeightedLegend clickable"><g class="legendMark"><text font-size="13.5" x="576.4" y="503.8" fill="#3360a9"><tspan x="576.44" y="503.85">World - Medium fertility variant, 2015 -</tspan><tspan x="576.44" y="518.7">2099: Demographic Indicators -</tspan><tspan x="576.44" y="533.55">Population growth rate (percentage)</tspan></text></g></g><g class="Lines"><g class="key-World_0"><path stroke="#ca2628" stroke-linecap="round" d="M57 123l4 7 3 11 4 6 3 1 3-1 4-4 3-4 4-5 3-5 4-5 3-5 4-6 3-8 3-8 4-8 3-8 4-4h3l4 3 3 6 4 6 3 6 4 8 3 9 3 10 4 9 3 7 4 4h3l4-1 3-1 4-1 3-2 4-4 3-4 3-3h4l3 7 4 13 3 16 4 15 3 14 4 12 3 10 3 8 4 9 3 7 4 6 3 4 4 3 3 2 4 2 3 1 4 1 3 1h3l4 1 3 1 4 2 3 2 4 1 3 3 4 3 3 4 4 5" fill="none" stroke-width="1.5"/><g fill="#ca2628"><circle cx="57" cy="123" r="2"/><circle cx="61" cy="130" r="2"/><circle cx="64" cy="141" r="2"/><circle cx="68" cy="147" r="2"/><circle cx="71" cy="148" r="2"/><circle cx="74" cy="147" r="2"/><circle cx="78" cy="143" r="2"/><circle cx="81" cy="139" r="2"/><circle cx="85" cy="134" r="2"/><circle cx="88" cy="129" r="2"/><circle cx="92" cy="124" r="2"/><circle cx="95" cy="119" r="2"/><circle cx="99" cy="113" r="2"/><circle cx="102" cy="105" r="2"/><circle cx="105" cy="97" r="2"/><circle cx="109" cy="89" r="2"/><circle cx="112" cy="81" r="2"/><circle cx="116" cy="77" r="2"/><circle cx="119" cy="77" r="2"/><circle cx="123" cy="80" r="2"/><circle cx="126" cy="86" r="2"/><circle cx="130" cy="92" r="2"/><circle cx="133" cy="98" r="2"/><circle cx="137" cy="106" r="2"/><circle cx="140" cy="115" r="2"/><circle cx="143" cy="125" r="2"/><circle cx="147" cy="134" r="2"/><circle cx="150" cy="141" r="2"/><circle cx="154" cy="145" r="2"/><circle cx="157" cy="145" r="2"/><circle cx="161" cy="144" r="2"/><circle cx="164" cy="143" r="2"/><circle cx="168" cy="142" r="2"/><circle cx="171" cy="140" r="2"/><circle cx="175" cy="136" r="2"/><circle cx="178" cy="132" r="2"/><circle cx="181" cy="129" r="2"/><circle cx="185" cy="129" r="2"/><circle cx="188" cy="136" r="2"/><circle cx="192" cy="149" r="2"/><circle cx="195" cy="165" r="2"/><circle cx="199" cy="180" r="2"/><circle cx="202" cy="194" r="2"/><circle cx="206" cy="206" r="2"/><circle cx="209" cy="216" r="2"/><circle cx="212" cy="224" r="2"/><circle cx="216" cy="233" r="2"/><circle cx="219" cy="240" r="2"/><circle cx="223" cy="246" r="2"/><circle cx="226" cy="250" r="2"/><circle cx="230" cy="253" r="2"/><circle cx="233" cy="255" r="2"/><circle cx="237" cy="257" r="2"/><circle cx="240" cy="258" r="2"/><circle cx="244" cy="259" r="2"/><circle cx="247" cy="260" r="2"/><circle cx="250" cy="260" r="2"/><circle cx="254" cy="261" r="2"/><circle cx="257" cy="262" r="2"/><circle cx="261" cy="264" r="2"/><circle cx="264" cy="266" r="2"/><circle cx="268" cy="267" r="2"/><circle cx="271" cy="270" r="2"/><circle cx="275" cy="273" r="2"/><circle cx="278" cy="277" r="2"/><circle cx="282" cy="282" r="2"/></g></g><g class="key-World_1"><path stroke="#3360a9" stroke-linecap="round" d="M282 282l3 5 3 5 4 5 3 4 4 5 3 5 4 5 3 5 4 5 3 4 3 5 4 4 3 5 4 4 3 4 4 4 3 4 4 4 3 3 4 4 3 3 3 4 4 3 3 4 4 3 3 3 4 3 3 4 4 3 3 3 4 3 3 3 3 4 4 3 3 3 4 3 3 3 4 3 3 4 4 2 3 4 4 2 3 3 3 3 4 2 3 2 4 3 3 2 4 2 3 2 4 2 3 2 3 2 4 2 3 2 4 2 3 2 4 1 3 2 4 2 3 2 4 1 3 2 3 2 4 1 3 2 4 1 3 2 4 1 3 2 4 1 3 1 4 2 3 1 3 1 4 2 3 1 4 2 3 1 4 1 3 2 4 1 3 2 3 1" fill="none" stroke-width="1.5" stroke-dasharray="1,4"/></g></g></g></g><g class="SourcesFooter" fill="#777"><g class="clickable" fill="#777"><text font-size="12.6" x="15" y="581.6"><tspan x="15" y="581.58">Source: UN Population Division (2017 Revision)</tspan></text></g><text font-size="12.6" x="507.1" y="581.6"><tspan x="507.15" y="581.58"><a target="_blank" href="https://ourworldindata.org/world-population-growth/" fill="#777">OurWorldInData.org/world-population-growth/</a> • <a class="cclogo" href="http://creativecommons.org/licenses/by-sa/4.0/deed.en_US" target="_blank" fill="#777">CC BY-SA</a></tspan></text></g></g></svg>

<svg xmlns="http://www.w3.org/2000/svg" version="1.1" style="font-family:&#x27;Helvetica Neue&#x27;, Helvetica, Arial, sans-serif;font-size:18px;background-color:white;text-rendering:optimizeLegibility;-webkit-font-smoothing:antialiased" width="850" height="600"><g class="ChartTab"><g class="HeaderView"><g opacity="0.8" transform="translate(778, 15) scale(0.27)"><a xmlns:xlink="http://www.w3.org/1999/xlink" xlink:href="https://ourworldindata.org" target="_blank"><g><rect x="0" y="0" fill="#1B2543" width="211.2" height="130.1"/><rect x="0" y="112.2" fill="#E63912" width="211.2" height="17.9"/><g><rect x="1.2" y="12.3" fill="none" width="210.2" height="99.2"/><path fill="#FFFFFF" d="M37.8,32.2c0,12.7-7.7,19.4-17.1,19.4c-9.7,0-16.6-7.5-16.6-18.7c0-11.7,7.3-19.3,17.1-19.3 C31.3,13.7,37.8,21.3,37.8,32.2z M9.2,32.8c0,7.9,4.3,14.9,11.8,14.9c7.5,0,11.8-6.9,11.8-15.3c0-7.3-3.8-14.9-11.8-14.9 C13.1,17.5,9.2,24.8,9.2,32.8z"/><path fill="#FFFFFF" d="M62.7,43.8c0,2.7,0.1,5.1,0.2,7.2h-4.3l-0.3-4.3h-0.1c-1.3,2.1-4,4.9-8.8,4.9c-4.2,0-9.1-2.3-9.1-11.6 V24.6h4.8v14.6c0,5,1.5,8.4,5.9,8.4c3.2,0,5.5-2.2,6.3-4.4c0.3-0.7,0.4-1.6,0.4-2.5V24.6h4.8V43.8z"/><path fill="#FFFFFF" d="M67.3,32.8c0-3.1-0.1-5.8-0.2-8.2h4.2l0.2,5.2h0.2c1.2-3.5,4.1-5.8,7.3-5.8c0.5,0,0.9,0.1,1.4,0.2v4.5 c-0.5-0.1-1-0.2-1.6-0.2c-3.4,0-5.8,2.6-6.5,6.2c-0.1,0.7-0.2,1.4-0.2,2.2V51h-4.8V32.8z"/><path fill="#FFFFFF" d="M95.4,51l-9.4-36.8h5l4.4,18.6c1.1,4.6,2.1,9.2,2.7,12.7h0.1c0.6-3.7,1.8-8,3-12.8l4.9-18.5h5l4.5,18.7 c1,4.4,2,8.7,2.6,12.6h0.1c0.8-4,1.8-8.1,3-12.7l4.9-18.5h4.9L120.6,51h-5L111,31.9c-1.1-4.7-1.9-8.3-2.4-12h-0.1 c-0.7,3.7-1.5,7.3-2.8,12L100.4,51H95.4z"/><path fill="#FFFFFF" d="M154.9,37.6c0,9.8-6.8,14-13.2,14c-7.2,0-12.7-5.2-12.7-13.6c0-8.8,5.8-14,13.1-14 C149.8,24,154.9,29.5,154.9,37.6z M133.9,37.9c0,5.8,3.3,10.1,8,10.1c4.6,0,8-4.3,8-10.3c0-4.5-2.2-10.1-7.9-10.1 C136.3,27.6,133.9,32.8,133.9,37.9z"/><path fill="#FFFFFF" d="M158.2,32.8c0-3.1-0.1-5.8-0.2-8.2h4.2l0.2,5.2h0.2c1.2-3.5,4.1-5.8,7.3-5.8c0.5,0,0.9,0.1,1.4,0.2v4.5 c-0.5-0.1-1-0.2-1.6-0.2c-3.4,0-5.8,2.6-6.5,6.2c-0.1,0.7-0.2,1.4-0.2,2.2V51h-4.8V32.8z"/><path fill="#FFFFFF" d="M173.5,12.3h4.8V51h-4.8V12.3z"/><path fill="#FFFFFF" d="M206.5,12.3v31.9c0,2.3,0.1,5,0.2,6.8h-4.3l-0.2-4.6H202c-1.5,2.9-4.7,5.2-9,5.2 c-6.4,0-11.3-5.4-11.3-13.4c-0.1-8.8,5.4-14.2,11.9-14.2c4,0,6.8,1.9,8,4h0.1V12.3H206.5z M201.7,35.4c0-0.6-0.1-1.4-0.2-2 c-0.7-3.1-3.3-5.6-6.9-5.6c-5,0-7.9,4.4-7.9,10.2c0,5.3,2.6,9.8,7.8,9.8c3.2,0,6.2-2.1,7.1-5.7c0.2-0.7,0.2-1.3,0.2-2.1V35.4z"/><path fill="#FFFFFF" d="M42.8,64c0.1,1.6-1.1,2.9-3.1,2.9c-1.7,0-2.9-1.3-2.9-2.9c0-1.7,1.3-3,3-3C41.7,61,42.8,62.3,42.8,64z M37.4,97.8V71.4h4.8v26.4H37.4z"/><path fill="#FFFFFF" d="M47.5,78.6c0-2.7-0.1-5-0.2-7.1h4.3l0.3,4.4h0.1c1.3-2.5,4.4-5,8.8-5c3.7,0,9.4,2.2,9.4,11.2v15.8h-4.8 V82.6c0-4.3-1.6-7.8-6.1-7.8c-3.2,0-5.6,2.2-6.5,4.9c-0.2,0.6-0.3,1.4-0.3,2.2v15.9h-4.8V78.6z"/><path fill="#FFFFFF" d="M84,61.6c2.9-0.4,6.3-0.8,10.1-0.8c6.8,0,11.7,1.6,14.9,4.6c3.3,3,5.2,7.3,5.2,13.2c0,6-1.9,10.9-5.3,14.3 c-3.4,3.4-9.1,5.3-16.3,5.3c-3.4,0-6.2-0.2-8.6-0.4V61.6z M88.8,94.1c1.2,0.2,3,0.3,4.8,0.3c10.2,0,15.7-5.7,15.7-15.6 c0.1-8.7-4.9-14.2-14.9-14.2c-2.5,0-4.3,0.2-5.6,0.5V94.1z"/><path fill="#FFFFFF" d="M132.1,97.8l-0.4-3.3h-0.2c-1.5,2.1-4.3,3.9-8.1,3.9c-5.4,0-8.1-3.8-8.1-7.6c0-6.4,5.7-9.9,15.9-9.8v-0.5 c0-2.2-0.6-6.1-6-6.1c-2.5,0-5,0.8-6.9,2l-1.1-3.2c2.2-1.4,5.4-2.3,8.7-2.3c8.1,0,10.1,5.5,10.1,10.8v9.9c0,2.3,0.1,4.5,0.4,6.3 H132.1z M131.4,84.4c-5.3-0.1-11.2,0.8-11.2,5.9c0,3.1,2.1,4.6,4.5,4.6c3.4,0,5.6-2.2,6.4-4.4c0.2-0.5,0.3-1,0.3-1.5V84.4z"/><path fill="#FFFFFF" d="M146.6,63.9v7.6h6.9v3.7h-6.9v14.2c0,3.3,0.9,5.1,3.6,5.1c1.3,0,2.2-0.2,2.8-0.3l0.2,3.6 c-0.9,0.4-2.4,0.7-4.3,0.7c-2.2,0-4-0.7-5.2-2c-1.4-1.4-1.9-3.8-1.9-6.9V75.1h-4.1v-3.7h4.1v-6.3L146.6,63.9z"/><path fill="#FFFFFF" d="M171.4,97.8l-0.4-3.3h-0.2c-1.5,2.1-4.3,3.9-8.1,3.9c-5.4,0-8.1-3.8-8.1-7.6c0-6.4,5.7-9.9,15.9-9.8v-0.5 c0-2.2-0.6-6.1-6-6.1c-2.5,0-5,0.8-6.9,2l-1.1-3.2c2.2-1.4,5.4-2.3,8.7-2.3c8.1,0,10.1,5.5,10.1,10.8v9.9c0,2.3,0.1,4.5,0.4,6.3 H171.4z M170.7,84.4c-5.3-0.1-11.2,0.8-11.2,5.9c0,3.1,2.1,4.6,4.5,4.6c3.4,0,5.6-2.2,6.4-4.4c0.2-0.5,0.3-1,0.3-1.5V84.4z"/></g></g></a></g><a href="https://ourworldindata.org/grapher/population-growth-rates" target="_blank"><text font-size="25.20" x="15.0" y="35.2" fill="#555"><tspan x="15" y="35.160000000000004">Population growth rate</tspan></text></a><text font-size="14.40" x="15.0" y="53.7" fill="#666"><tspan x="15" y="53.72">Average annual rate of population change (including the UN&#x27;s &#x27;Medium variant&#x27; projections until 2100)</tspan></text></g><g class="LineChart"><defs><clipPath id="boundsClip-5"><rect x="47.098" y="0" width="830" height="959.8"></rect></clipPath></defs><g class="AxisBoxView"><g class="HorizontalAxis"><text x="57.1" y="556.5" fill="#666" text-anchor="middle" font-size="16.2">1950</text><text x="160.7" y="556.5" fill="#666" text-anchor="middle" font-size="16.2">1980</text><text x="229.7" y="556.5" fill="#666" text-anchor="middle" font-size="16.2">2000</text><text x="298.7" y="556.5" fill="#666" text-anchor="middle" font-size="16.2">2020</text><text x="367.8" y="556.5" fill="#666" text-anchor="middle" font-size="16.2">2040</text><text x="436.8" y="556.5" fill="#666" text-anchor="middle" font-size="16.2">2060</text><text x="505.9" y="556.5" fill="#666" text-anchor="middle" font-size="16.2">2080</text><text x="571.4" y="556.5" fill="#666" text-anchor="middle" font-size="16.2">2099</text></g><g class="VerticalAxis"><text x="52.10" y="535.3" fill="#666" dominant-baseline="middle" text-anchor="end" font-size="16.2">0%</text><text x="52.10" y="424.3" fill="#666" dominant-baseline="middle" text-anchor="end" font-size="16.2">0.5%</text><text x="52.10" y="313.4" fill="#666" dominant-baseline="middle" text-anchor="end" font-size="16.2">1%</text><text x="52.10" y="202.4" fill="#666" dominant-baseline="middle" text-anchor="end" font-size="16.2">1.5%</text><text x="52.10" y="91.5" fill="#666" dominant-baseline="middle" text-anchor="end" font-size="16.2">2%</text></g><g class="AxisGridLines"><line x1="57.10" y1="535.3" x2="571.44" y2="535.3" stroke="#ccc"></line><line x1="57.10" y1="424.3" x2="571.44" y2="424.3" stroke="#ddd" stroke-dasharray="3,2"></line><line x1="57.10" y1="313.4" x2="571.44" y2="313.4" stroke="#ddd" stroke-dasharray="3,2"></line><line x1="57.10" y1="202.4" x2="571.44" y2="202.4" stroke="#ddd" stroke-dasharray="3,2"></line><line x1="57.10" y1="91.5" x2="571.44" y2="91.5" stroke="#ddd" stroke-dasharray="3,2"></line></g></g><g clip-path="url(#boundsClip-5)"><g class="HeightedLegend clickable"><g class="legendMark"><rect x="571.4449999999999" y="493.04999999999995" width="263.555" height="42.7" fill="#fff" opacity="0"></rect><text font-size="13.50" x="576.4" y="503.8" fill="#3360a9"><tspan x="576.4449999999999" y="503.84999999999997">World - Medium fertility variant, 2015 -</tspan><tspan x="576.4449999999999" y="518.6999999999999">2099: Demographic Indicators -</tspan><tspan x="576.4449999999999" y="533.55">Population growth rate (percentage)</tspan></text></g></g><g class="Lines"><rect x="57" y="77" width="514" height="459" fill="rgba(255,255,255,0)" opacity="0"></rect><g class="key-World_0"><path stroke="#ca2628" stroke-linecap="round" d="M57 123L61 130L64 141L68 147L71 148L74 147L78 143L81 139L85 134L88 129L92 124L95 119L99 113L102 105L105 97L109 89L112 81L116 77L119 77L123 80L126 86L130 92L133 98L137 106L140 115L143 125L147 134L150 141L154 145L157 145L161 144L164 143L168 142L171 140L175 136L178 132L181 129L185 129L188 136L192 149L195 165L199 180L202 194L206 206L209 216L212 224L216 233L219 240L223 246L226 250L230 253L233 255L237 257L240 258L244 259L247 260L250 260L254 261L257 262L261 264L264 266L268 267L271 270L275 273L278 277L282 282" fill="none" stroke-width="1.5"></path><g fill="#ca2628"><circle cx="57" cy="123" r="2"></circle><circle cx="61" cy="130" r="2"></circle><circle cx="64" cy="141" r="2"></circle><circle cx="68" cy="147" r="2"></circle><circle cx="71" cy="148" r="2"></circle><circle cx="74" cy="147" r="2"></circle><circle cx="78" cy="143" r="2"></circle><circle cx="81" cy="139" r="2"></circle><circle cx="85" cy="134" r="2"></circle><circle cx="88" cy="129" r="2"></circle><circle cx="92" cy="124" r="2"></circle><circle cx="95" cy="119" r="2"></circle><circle cx="99" cy="113" r="2"></circle><circle cx="102" cy="105" r="2"></circle><circle cx="105" cy="97" r="2"></circle><circle cx="109" cy="89" r="2"></circle><circle cx="112" cy="81" r="2"></circle><circle cx="116" cy="77" r="2"></circle><circle cx="119" cy="77" r="2"></circle><circle cx="123" cy="80" r="2"></circle><circle cx="126" cy="86" r="2"></circle><circle cx="130" cy="92" r="2"></circle><circle cx="133" cy="98" r="2"></circle><circle cx="137" cy="106" r="2"></circle><circle cx="140" cy="115" r="2"></circle><circle cx="143" cy="125" r="2"></circle><circle cx="147" cy="134" r="2"></circle><circle cx="150" cy="141" r="2"></circle><circle cx="154" cy="145" r="2"></circle><circle cx="157" cy="145" r="2"></circle><circle cx="161" cy="144" r="2"></circle><circle cx="164" cy="143" r="2"></circle><circle cx="168" cy="142" r="2"></circle><circle cx="171" cy="140" r="2"></circle><circle cx="175" cy="136" r="2"></circle><circle cx="178" cy="132" r="2"></circle><circle cx="181" cy="129" r="2"></circle><circle cx="185" cy="129" r="2"></circle><circle cx="188" cy="136" r="2"></circle><circle cx="192" cy="149" r="2"></circle><circle cx="195" cy="165" r="2"></circle><circle cx="199" cy="180" r="2"></circle><circle cx="202" cy="194" r="2"></circle><circle cx="206" cy="206" r="2"></circle><circle cx="209" cy="216" r="2"></circle><circle cx="212" cy="224" r="2"></circle><circle cx="216" cy="233" r="2"></circle><circle cx="219" cy="240" r="2"></circle><circle cx="223" cy="246" r="2"></circle><circle cx="226" cy="250" r="2"></circle><circle cx="230" cy="253" r="2"></circle><circle cx="233" cy="255" r="2"></circle><circle cx="237" cy="257" r="2"></circle><circle cx="240" cy="258" r="2"></circle><circle cx="244" cy="259" r="2"></circle><circle cx="247" cy="260" r="2"></circle><circle cx="250" cy="260" r="2"></circle><circle cx="254" cy="261" r="2"></circle><circle cx="257" cy="262" r="2"></circle><circle cx="261" cy="264" r="2"></circle><circle cx="264" cy="266" r="2"></circle><circle cx="268" cy="267" r="2"></circle><circle cx="271" cy="270" r="2"></circle><circle cx="275" cy="273" r="2"></circle><circle cx="278" cy="277" r="2"></circle><circle cx="282" cy="282" r="2"></circle></g></g><g class="key-World_1"><path stroke="#3360a9" stroke-linecap="round" d="M282 282L285 287L288 292L292 297L295 301L299 306L302 311L306 316L309 321L313 326L316 330L319 335L323 339L326 344L330 348L333 352L337 356L340 360L344 364L347 367L351 371L354 374L357 378L361 381L364 385L368 388L371 391L375 394L378 398L382 401L385 404L389 407L392 410L395 414L399 417L402 420L406 423L409 426L413 429L416 433L420 435L423 439L427 441L430 444L433 447L437 449L440 451L444 454L447 456L451 458L454 460L458 462L461 464L464 466L468 468L471 470L475 472L478 474L482 475L485 477L489 479L492 481L496 482L499 484L502 486L506 487L509 489L513 490L516 492L520 493L523 495L527 496L530 497L534 499L537 500L540 501L544 503L547 504L551 506L554 507L558 508L561 510L565 511L568 513L571 514" fill="none" stroke-width="1.5" stroke-dasharray="1,4"></path></g></g></g></g><g class="SourcesFooter" style="fill:#777"><g class="clickable" style="fill:#777"><text font-size="12.60" x="15.0" y="581.6"><tspan x="15" y="581.58">Source: UN Population Division (2017 Revision)</tspan></text></g><text font-size="12.60" x="507.1" y="581.6"><tspan x="507.148" y="581.58"><a target='_blank' style='fill: #777;' href='https://ourworldindata.org/world-population-growth/'>OurWorldInData.org/world-population-growth/</a> • <a style="fill: #777;" class="cclogo" href="http://creativecommons.org/licenses/by-sa/4.0/deed.en_US" target="_blank">CC BY-SA</a></tspan></text></g></g></svg>
